X:944034
T:The Sound of Silence 3Voice P5
H: 
B: https://musescore.com/georgewu/ptxsoundofsilence, https://musescore.com/abchords321/scores/5449091
C:Simon and Garfunkel (Pentatonix / disturbed)
O:Transcribed by Kevin Fraser
Z:Kevin Fraser
Q:1/4=90
K:AMix
%K:AMix sound=A_b
%K:{g}B{d}BMix score=_{g}B{e}A %concert Pitch
M:4/4
L:1/8
U: R = ///
U: r = //
I:MIDI=program 110
I:linebreak $
%%MIDI gracedivider 100
V:M gstem=up stem=down name="Melody" sname=Melody
V:1 gstem=up stem=down name="Chord" sname=Ch
V:2 gstem=up stem=down name="Bass" sname=Bass 
V:3 gstem=up stem=down name="Piper 3" sname=P3 
V:4 gstem=up stem=down name="Piper 4" sname=P4 
V:BB gstem=up stem=down name="Brass Bass" sname="ABCD-C" transpose=-1  octave=-1 clef=bass
V:BC gstem=up stem=down name="Brass Chord" sname="ABCD-D" transpose=-1
V:BD gstem=up stem=down name="Brass Chord 2" sname="ABCD-B" transpose=-1
V:P gstem=up stem=down name="Piano" octave=-1
%%staff { M [ 1 2 ] }
% Standard papaer is 8.5x11 which is 22cmx27.5
% %landscape off
%%landscape 
I:linebreak $
%%score {M 1 2}
% %barsperstaff 5
[V:1]                [| fe                  fA B2 d2-                  | A2                                c2 e2 c2-               | c2                   c2 e2 c2                   | {g}d4                     f2 d2-          | z2                        ff {g}A{d}A {g}d{e}d-| $ 
[V:1]                B2                 {g}B{e}A- A4-    | A2              dc {g}B{e}A f/e/d          |  B2                      {g}BA- A2 {g}A/G/f- |  f2      {g}d{e}d f2 {g}A{d}A | B2                  {g}B{d}B {g}B{d}B c2       | $
[V:1]                 {g}d/{g}d/{g}d-                   {g}d{e}d cB {g}A{d}A-   | A4-                  A{g}d {g}B/{g}B/A-         | Af-                       f6-             | f3d                       {g}d{e}d- {g}d{e}d/d/      | {g}A8-                              | Ac              dB- B4                     |] $
[V:2]                [| dc                  {g}B{e}A fd Bf             | {g}A8-                                                    | {g}A8                                           | B8-                                       | {gBd}B2 {g}d{e}d {g}f{g}f                    {g}A{d}A                         |  $ 
[V:2]                G4                 {gde}d4          | d6              d2                         |  {g}A4                   d2 d/B/A-             |  A2 {gde}d2 d2 d2                |  G2                  {g}G{d}G {g}G{d}G A2       | $ 
[V:2]                {g}B/{g}B/{g}B-                   {g}B{d}B AG {g}f{g}f-   | f4-                  d{g}d {g}B/{g}B/A-         | B3c                       d2 c2           | B8                                                   | c8-                                 | ec              dB- B4                     |] $
[V:M]                [| B2                  {g}B{d}B {g}d{e}d f/e/d    | e8-                                                       | e2                   {g}A{d}A {g}c{d}c e2       | {g}f{g}f7-                                | f2                        {g}B{d}B {g}d{e}d {g}f{g}f | $ 
[V:M]                g2-gf-             f4-              | f2              dc {g}B{e}A f/e/d          |  g2                      gf- f2 f/e/d-       |  d2      {g}d{e}d f2 {g}A{d}A | d2                  {g}d{e}d {g}d{e}d f2       | $
[V:M]                 | {a}g/{a}g/{a}g-                   {a}g{a}g fe d2-         | {gde}d4-             {g}d{e}d {g}e/{g}e/d-      | Af-                       f6-             | f3d                       {g}d{e}d- {g}d{e}d/d/      | e8-                                 | ec              dB- B4                     |] $
W: Use Gracenotes or Strikes to separate repeated notes that don't have gracenote separators.

w:        Fools said I you do not |      know          | - Thou-sand Peo-ple May-be    |    more      |-   Hear my words that I might | teach you         | - take my arms that I might | reach you      | $
w:   |        -    but my  |        words      like | si-lent rain drops fell              |                   |  e-choed            in the | wells    of | si-lence    |] $
w:      -   and the  peo-ple bowed and| prayed | -  to the   ne-on    god | they made | -  and the sign flashed out its| war-ning   | - and the words that it was| for-ming  | and the sign said the |  $
w:   |  -         words of the pro-phet are |          written on the   sub-way walls | and            tenement        |halls         | and whispered  in the       | sound   | of  si-lence     |] $

